public/logosgooglegmail1.svg

<svg width="41" height="41" viewBox="0 0 41 41" fill="none" xmlns="http://www.w3.org/2000/svg">
<g clip-path="url(#clip0_1290_1621)">
<path d="M9.59094 40.3049V19.8054L4.79797 13.9893L0.5 10.7617V36.6873C0.5 38.689 1.72266 40.3049 3.22734 40.3049H9.59094Z" fill="#4285F4"/>
<path d="M31.4082 40.3047H37.7718C39.281 40.3047 40.4991 38.6828 40.4991 36.6871V10.7617L35.631 14.4585L31.4082 19.8052V40.3047Z" fill="#34A853"/>
<path d="M9.59164 19.8048L8.93945 11.795L9.59164 4.12891L20.5007 14.9815L31.4098 4.12891L32.1393 11.3811L31.4098 19.8048L20.5007 30.6574L9.59164 19.8048Z" fill="#EA4335"/>
<path d="M31.4082 4.12771V19.8036L40.4991 10.7598V5.93641C40.4991 1.46284 36.6491 -1.08742 33.9538 1.59548L31.4082 4.12771Z" fill="#FBBC04"/>
<path d="M0.5 10.7599L4.68109 14.9195L9.59094 19.8037V4.1278L7.04531 1.59557C4.34531 -1.08753 0.5 1.46293 0.5 5.9363V10.7597V10.7599Z" fill="#C5221F"/>
</g>
<defs>
<clipPath id="clip0_1290_1621">
<rect width="40" height="40" fill="white" transform="translate(0.5 0.5)"/>
</clipPath>
</defs>
</svg>

<svg width="41" height="41" fill="none" xmlns="http://www.w3.org/2000/svg"><g clip-path="url(#a)"><path d="M9.59 40.305v-20.5L4.799 13.99.5 10.762v25.925c0 2.002 1.223 3.618 2.727 3.618h6.364z" fill="#4285F4"/><path d="M31.408 40.305h6.364c1.509 0 2.727-1.622 2.727-3.618V10.762l-4.868 3.697-4.223 5.346v20.5z" fill="#34A853"/><path d="m9.592 19.805-.653-8.01.653-7.666L20.5 14.98 31.41 4.13l.73 7.252-.73 8.424L20.5 30.657 9.593 19.805z" fill="#EA4335"/><path d="M31.408 4.128v15.676L40.5 10.76V5.936c0-4.473-3.85-7.023-6.545-4.34l-2.546 2.532z" fill="#FBBC04"/><path d="m.5 10.76 4.181 4.16 4.91 4.884V4.128L7.045 1.596C4.345-1.088.5 1.463.5 5.936v4.824z" fill="#C5221F"/></g><defs><clipPath id="a"><path fill="#fff" transform="translate(.5 .5)" d="M0 0h40v40H0z"/></clipPath></defs></svg>
